static/assets/img/icons/theme/text/align-left.svg

<svg height="24" viewBox="0 0 24 24" width="24" xmlns="http://www.w3.org/2000/svg"><g fill="none" fill-rule="evenodd"><path d="m0 0h24v24h-24z" opacity="0"/><g fill="#000"><rect height="2" opacity=".3" rx="1" width="16" x="4" y="5"/><rect height="2" opacity=".3" rx="1" width="16" x="4" y="13"/><path d="m5 9h8c.5522847 0 1 .44771525 1 1 0 .5522847-.4477153 1-1 1h-8c-.55228475 0-1-.4477153-1-1 0-.55228475.44771525-1 1-1zm0 8h8c.5522847 0 1 .4477153 1 1s-.4477153 1-1 1h-8c-.55228475 0-1-.4477153-1-1s.44771525-1 1-1z"/></g></g></svg>

<svg width="24px" height="24px" viewBox="0 0 24 24" version="1.1" xmlns="http://www.w3.org/2000/svg" xmlns:xlink="http://www.w3.org/1999/xlink">
    <title>Icon For Align-left</title>
    <g stroke="none" stroke-width="1" fill="none" fill-rule="evenodd">
        <rect opacity="0" x="0" y="0" width="24" height="24"></rect>
        <rect fill="#000000" opacity="0.3" x="4" y="5" width="16" height="2" rx="1"></rect>
        <rect fill="#000000" opacity="0.3" x="4" y="13" width="16" height="2" rx="1"></rect>
        <path d="M5,9 L13,9 C13.5522847,9 14,9.44771525 14,10 C14,10.5522847 13.5522847,11 13,11 L5,11 C4.44771525,11 4,10.5522847 4,10 C4,9.44771525 4.44771525,9 5,9 Z M5,17 L13,17 C13.5522847,17 14,17.4477153 14,18 C14,18.5522847 13.5522847,19 13,19 L5,19 C4.44771525,19 4,18.5522847 4,18 C4,17.4477153 4.44771525,17 5,17 Z" fill="#000000"></path>
    </g>
</svg>
